X:2309
T:Arrane y Fee 
C:Hudgeon y Fidder
C:Traditional
O:Isle of Man
Z:Collected by Mona Douglas
B:Kiaull Vannin #309 
M:4/4
L:1/4 
Q:60 
K:C 
(c/A/)|AE E (c/A/)|AE E (A/B/)|cA BG|EA A(c/A/)| 
AE E(c/A/)|AE EA/B/|c(B/A/) BG|EA A(c/d/)| 
ec dB|cA Bc/d/|ec (d/c/)(B/A/)|E A A c/d/| 
ec dB|c A B(c/d/)|e(e/f/) (e/d/) c/B/|EA A|| 

